public/images/dynamodb.svg

<svg width="57" height="65" viewBox="0 0 57 65" fill="none" xmlns="http://www.w3.org/2000/svg">
<g clip-path="url(#clip0)">
<path d="M36.7957 64.6144H37.5768L50.3264 58.2609L50.5385 57.962V7.24869L50.3264 6.94825L37.5768 0.600098H36.7862L36.7957 64.6144Z" fill="#5294CF"/>
<path d="M20.2041 64.6144H19.4121L6.67345 58.2609L6.41495 57.8178L6.28381 7.50696L6.67345 6.94825L19.4121 0.600098H20.2139L20.2041 64.6144Z" fill="#1F5B98"/>
<path d="M19.4345 0.600098H37.5646V64.6144H19.4345V0.600098Z" fill="#2D72B8"/>
<path d="M57 31.1691L56.5692 31.0739L50.4176 30.5023L50.3263 30.5476L37.5654 30.039H19.4346L6.67345 30.5476V20.8503L6.66009 20.8574L6.67345 20.829L19.4346 17.8823H37.5654L50.3263 20.829L55.0175 23.3139V21.7163L57 21.5002L56.7947 21.1012L50.5176 16.6282L50.3263 16.6901L37.5654 12.7497H19.4346L6.67345 16.6901V6.94824L0 14.7393V21.5437L0.0516562 21.5064L1.98253 21.7163V23.3467L0 24.404V31.1744L0.0516562 31.1691L1.98253 31.1975V34.0392L0.316617 34.064L0 34.0338V40.8069L1.98253 41.8693V43.5185L0.0830508 43.7276L0 43.6654V50.4687L6.67345 58.2609V48.5199L19.4346 52.4603H37.5654L50.364 48.5083L50.5341 48.5826L56.7286 44.1756L57 43.7364L55.0175 43.5185V41.9023L54.7576 41.7989L50.5176 44.0766L50.364 44.3961L37.5654 47.3257V47.3292H19.4346V47.3257L6.67345 44.3837V34.6509L19.4346 35.1577V35.1701H37.5654L50.3263 34.6509L50.6169 34.784L56.5794 34.2724L57 34.0676L55.0175 34.0392V31.1975L57 31.1691Z" fill="#1A476F"/>
<path d="M50.3264 48.52V58.261L57 50.4688V43.71L50.3649 48.5085L50.3264 48.52Z" fill="#2D72B8"/>
<path d="M50.3264 44.405L50.3649 44.3961L57 40.8397V34.0392L50.3264 34.6509V44.405Z" fill="#2D72B8"/>
<path d="M50.3649 20.8379L50.3264 20.829V30.5476L57 31.1691V24.3718L50.3649 20.8379Z" fill="#2D72B8"/>
<path d="M50.3649 16.7283L57 21.5002V14.7411L50.3264 6.94824V16.6901L50.3649 16.7035V16.7283Z" fill="#2D72B8"/>
</g>
<defs>
<clipPath id="clip0">
<rect width="57" height="64.125" fill="white" transform="translate(0 0.600098)"/>
</clipPath>
</defs>
</svg>

<svg xmlns="http://www.w3.org/2000/svg" fill="none" viewBox="0 0 57 65">
  <g clip-path="url(#clip0)">
    <path fill="#5294CF" d="M36.8 64.61h.78l12.75-6.35.2-.3V7.25l-.2-.3L37.58.6h-.8l.02 64.01z"/>
    <path fill="#1F5B98" d="M20.2 64.61h-.79L6.67 58.26l-.26-.44L6.28 7.5l.4-.56L19.4.6h.8v64.01z"/>
    <path fill="#2D72B8" d="M19.43.6h18.13v64.01H19.43V.6z"/>
    <path fill="#1A476F" d="M57 31.17l-.43-.1-6.15-.57-.1.05-12.75-.51H19.43l-12.76.5v-9.69h-.01l.01-.02 12.76-2.95h18.14l12.76 2.95 4.69 2.48v-1.6L57 21.5l-.2-.4-6.28-4.47-.2.06-12.75-3.94H19.43L6.67 16.69V6.95L0 14.74v6.8l.05-.03 1.93.2v1.64L0 24.4v6.77h.05l1.93.03v2.84l-1.66.02-.32-.03v6.78l1.98 1.06v1.65l-1.9.2-.08-.05v6.8l6.67 7.8v-9.75l12.76 3.94h18.14l12.8-3.95.16.07 6.2-4.4.27-.44-1.98-.22V41.9l-.26-.1-4.24 2.28-.16.32-12.8 2.93H19.44L6.67 44.38v-9.73l12.76.5v.02h18.14l12.76-.52.29.13 5.96-.5.42-.21-1.98-.03V31.2l1.98-.03z"/>
    <path fill="#2D72B8" d="M50.33 48.52v9.74l6.67-7.8v-6.75l-6.64 4.8-.03.01zM50.33 44.4h.03L57 40.84v-6.8l-6.67.61v9.76zM50.36 20.84l-.03-.01v9.72l6.67.62v-6.8l-6.64-3.53zM50.36 16.73L57 21.5v-6.76l-6.67-7.8v9.75l.03.01v.03z"/>
  </g>
  <defs>
    <clipPath id="clip0">
      <path fill="#fff" d="M0 0h57v64.13H0z" transform="translate(0 .6)"/>
    </clipPath>
  </defs>
</svg>
